static/fa/svgs/solid/gauge-simple.svg

<svg xmlns="http://www.w3.org/2000/svg" viewBox="0 0 512 512"><!--! Font Awesome Free 6.1.1 by @fontawesome - https://fontawesome.com License - https://fontawesome.com/license/free (Icons: CC BY 4.0, Fonts: SIL OFL 1.1, Code: MIT License) Copyright 2022 Fonticons, Inc.--><path d="M512 256c0 141.4-114.6 256-256 256S0 397.4 0 256 114.6 0 256 0s256 114.6 256 256zm-232 36.7V88c0-13.25-10.7-24-24-24s-24 10.75-24 24v204.7c-23.5 9.4-40 32.4-40 59.3 0 35.3 28.7 64 64 64s64-28.7 64-64c0-26.9-16.5-49.9-40-59.3z"/></svg>

<svg xmlns="http://www.w3.org/2000/svg" viewBox="0 0 512 512"><!--! Font Awesome Free 6.1.1 by @fontawesome - https://fontawesome.com License - https://fontawesome.com/license/free (Icons: CC BY 4.0, Fonts: SIL OFL 1.1, Code: MIT License) Copyright 2022 Fonticons, Inc. --><path d="M512 256C512 397.4 397.4 512 256 512C114.6 512 0 397.4 0 256C0 114.6 114.6 0 256 0C397.4 0 512 114.6 512 256zM280 292.7V88C280 74.75 269.3 64 256 64C242.7 64 232 74.75 232 88V292.7C208.5 302.1 192 325.1 192 352C192 387.3 220.7 416 256 416C291.3 416 320 387.3 320 352C320 325.1 303.5 302.1 280 292.7z"/></svg>
